svgs/avast_mobile_security.svg

<svg width="192" height="192" viewBox="0 0 192 192" fill="none" xmlns="http://www.w3.org/2000/svg">
<path d="M96 172C137.974 172 172 137.974 172 96C172 54.0264 137.974 20 96 20C54.0264 20 20 54.0264 20 96C20 137.974 54.0264 172 96 172Z" stroke="black" stroke-width="8" stroke-linecap="round" stroke-linejoin="round"/>
<path d="M159.056 135.148C136.851 111.511 105.935 84.7831 83.7302 61.504C79.7907 57.5645 78 52.5505 78 47.1784C78.3581 38.5831 85.1628 30.3459 93.7581 29.2715C102.712 27.8389 110.591 32.1366 114.53 40.7319C128.856 70.8156 144.73 105.065 159.056 135.148Z" stroke="black" stroke-width="10" stroke-linecap="round" stroke-linejoin="round"/>
<path d="M64.2642 99.3535C58.8922 97.2047 55.6689 92.1907 56.027 86.8186C56.3852 81.4465 60.3247 76.4326 66.0549 75.3581C66.0549 75.3581 67.4875 75 68.2038 75C71.0689 75 73.934 76.0744 76.0829 77.8651L131.953 124.065L64.2642 99.3535Z" stroke="black" stroke-width="10" stroke-linecap="round" stroke-linejoin="round"/>
<path d="M52.7047 129.623C48.407 129.981 44.4674 126.758 44.1093 122.46C43.393 117.804 46.2581 113.865 50.914 113.148C52.3465 112.79 54.1372 113.148 55.5698 113.506C69.8954 116.73 87.0861 121.744 101.053 124.967L52.7047 129.623Z" stroke="black" stroke-width="10" stroke-linecap="round" stroke-linejoin="round"/>
<path d="M42 145.447L74.5907 139L49.8791 154.758" stroke="black" stroke-width="10" stroke-linecap="round" stroke-linejoin="round"/>
</svg>

<svg width="192" height="192" viewBox="0 0 192 192" fill="none" xmlns="http://www.w3.org/2000/svg"><path d="M96 172c41.974 0 76-34.026 76-76s-34.026-76-76-76-76 34.026-76 76 34.026 76 76 76Z" stroke="#000" stroke-width="8" stroke-linecap="round" stroke-linejoin="round"/><path d="M159.056 135.148c-22.205-23.637-53.121-50.365-75.326-73.644-3.94-3.94-5.73-8.953-5.73-14.326.358-8.595 7.163-16.832 15.758-17.906 8.954-1.433 16.833 2.865 20.772 11.46 14.326 30.084 30.2 64.333 44.526 94.416ZM64.264 99.353c-5.372-2.148-8.595-7.162-8.237-12.534.358-5.373 4.298-10.386 10.028-11.46 0 0 1.432-.359 2.149-.359 2.865 0 5.73 1.074 7.879 2.865l55.87 46.2-67.689-24.712ZM52.705 129.623c-4.298.358-8.238-2.865-8.596-7.163-.716-4.656 2.15-8.595 6.805-9.312 1.432-.358 3.223 0 4.656.358 14.325 3.224 31.516 8.238 45.483 11.461l-48.348 4.656ZM42 145.447 74.59 139l-24.71 15.758" stroke="#000" stroke-width="10" stroke-linecap="round" stroke-linejoin="round"/></svg>
